X:55
T: Orphan (The)
S: Kathleen Collins
Z: B.Black
M: 6/8
R: jig
L: 1/8
K: Em
B | EFE EDB, | GFG AGA | BGB AFA | GEF EDB, |
A,3 EDB, | GFG AGA |1 BGB AFA | GEE E2 :|2\
BdB AdF | EFE E2 ||
d | ege dBA | GAB d2 g | edB AGA | BGE DB,A, |
B,EE EDB, | G3 AGA |1 BGB AFA | GEE E2 :|2\
BdB AdF | EFE E2 ||
d | e/f/ge ded | cBA B2 A | GAB dBA | B3 B2 A |
EGF EDB, | GFG AGA |1 BGB AFA | GEE E2 :|2\
BcB ABA | GEE E3 ||

